dist/assets/img/services-mock-icon.svg

<svg width="40" height="40" viewBox="0 0 40 40" fill="none" xmlns="http://www.w3.org/2000/svg">
<g clip-path="url(#clip0_1277_10)">
<path d="M25.4544 2.7272C25.4544 2.2256 25.8624 1.8184 26.364 1.8184H30C33.5088 1.8184 36.3632 4.6728 36.3632 8.1816V11.4416L38.4472 9.3584C38.6199 9.19973 38.8472 9.11389 39.0817 9.11882C39.3162 9.12374 39.5397 9.21905 39.7056 9.38483C39.8715 9.55062 39.9669 9.77407 39.972 10.0085C39.9771 10.243 39.8914 10.4704 39.7328 10.6432L36.076 14.2992C36.0744 14.2992 36.0744 14.2992 36.0744 14.3016C35.9129 14.4515 35.7026 14.5379 35.4824 14.5448H35.4272C35.2057 14.5382 34.9943 14.4508 34.8328 14.2992L31.1744 10.6416C31.0157 10.4689 30.9299 10.2416 30.9348 10.0071C30.9397 9.77262 31.035 9.54911 31.2008 9.38322C31.3666 9.21733 31.5901 9.12189 31.8245 9.11681C32.059 9.11174 32.2864 9.19743 32.4592 9.356L34.5456 11.4416V8.1816C34.5443 6.97642 34.065 5.82097 33.2128 4.96878C32.3606 4.11659 31.2052 3.63727 30 3.636H26.3632C25.8616 3.636 25.4544 3.2288 25.4544 2.7272ZM13.636 36.3632H9.9992C8.79443 36.3613 7.63955 35.8819 6.78764 35.03C5.93574 34.1781 5.4563 33.0232 5.4544 31.8184V28.5584L7.5376 30.6416C7.71 30.8025 7.93813 30.8901 8.17389 30.886C8.40965 30.882 8.63462 30.7865 8.80135 30.6198C8.96809 30.453 9.06356 30.2281 9.06763 29.9923C9.07171 29.7565 8.98407 29.5284 8.8232 29.356L5.1672 25.7C5.1632 25.7 5.1632 25.7 5.1648 25.6976C5.00373 25.5471 4.79319 25.4606 4.5728 25.4544H4.52C4.4072 25.4584 4.3 25.4816 4.2016 25.5232C4.1016 25.5632 4.0096 25.624 3.9272 25.6992C3.9256 25.7016 3.9272 25.7016 3.9256 25.7016L0.2688 29.3576C0.107929 29.53 0.0202917 29.7581 0.0243674 29.9939C0.0284431 30.2297 0.123913 30.4546 0.290647 30.6214C0.457381 30.7881 0.682347 30.8836 0.918109 30.8876C1.15387 30.8917 1.382 30.8041 1.5544 30.6432L3.636 28.5576V31.8184C3.636 35.3272 6.4904 38.1816 10 38.1816H13.636C13.8725 38.1746 14.0969 38.0757 14.2617 37.906C14.4265 37.7362 14.5186 37.509 14.5186 37.2724C14.5186 37.0358 14.4265 36.8086 14.2617 36.6388C14.0969 36.4691 13.8725 36.3702 13.636 36.3632ZM17.2728 5.4544H6.3632C6.12673 5.46142 5.9023 5.56028 5.73752 5.73002C5.57274 5.89977 5.48057 6.12703 5.48057 6.3636C5.48057 6.60017 5.57274 6.82743 5.73752 6.99718C5.9023 7.16692 6.12673 7.26578 6.3632 7.2728H10.3472L8.5288 10.9088H6.3632C6.12673 10.9158 5.9023 11.0147 5.73752 11.1844C5.57274 11.3542 5.48057 11.5814 5.48057 11.818C5.48057 12.0546 5.57274 12.2818 5.73752 12.4516C5.9023 12.6213 6.12673 12.7202 6.3632 12.7272H7.6192L5.5512 16.864C5.44299 17.0797 5.42489 17.3295 5.50088 17.5585C5.57687 17.7875 5.74073 17.977 5.9564 18.0852C6.17207 18.1934 6.4219 18.2115 6.65092 18.1355C6.87994 18.0595 7.06939 17.8957 7.1776 17.68L9.3376 13.3616L12.9288 17.8416C13.0817 18.0236 13.2998 18.1385 13.5363 18.1617C13.7729 18.1849 14.0092 18.1146 14.1945 17.9658C14.3799 17.817 14.4997 17.6016 14.5282 17.3656C14.5567 17.1296 14.4918 16.8919 14.3472 16.7032L11.156 12.7272H15.4544C15.6909 12.7202 15.9153 12.6213 16.0801 12.4516C16.2449 12.2818 16.337 12.0546 16.337 11.818C16.337 11.5814 16.2449 11.3542 16.0801 11.1844C15.9153 11.0147 15.6909 10.9158 15.4544 10.9088H10.5616L12.3792 7.272H17.2728C17.5072 7.26216 17.7288 7.16211 17.8912 6.99276C18.0536 6.8234 18.1443 6.59784 18.1443 6.3632C18.1443 6.12856 18.0536 5.903 17.8912 5.73364C17.7288 5.56429 17.5072 5.46424 17.2728 5.4544ZM40 17.272V39.0904C40 39.592 39.592 40 39.0912 40H17.272C16.7696 40 16.3624 39.592 16.3624 39.0912V23.6368H0.9088C0.408 23.6368 0 23.2288 0 22.7272V0.9088C0 0.408 0.408 0 0.9088 0H22.728C23.2304 0 23.6376 0.408 23.6376 0.9088V16.3632H39.092C39.5936 16.3632 40.0008 16.7712 40.0008 17.2728L40 17.272ZM17.272 16.3624H21.8176V1.8192H1.8184V21.8192H16.364V17.2736C16.364 16.7712 16.7712 16.364 17.2728 16.364L17.272 16.3624ZM38.1816 18.1808H18.1816V38.1808H38.1816V18.1808ZM21.9144 33.2288L23.7232 29.6104C23.7288 29.5992 23.7344 29.5864 23.7416 29.576L27.3688 22.32C27.6776 21.7032 28.6872 21.7032 28.996 22.32L32.6232 29.576C32.6312 29.5872 32.636 29.5976 32.6416 29.6104L34.4504 33.2288C34.5483 33.4433 34.5591 33.6874 34.4806 33.9098C34.4022 34.1321 34.2405 34.3153 34.0296 34.4209C33.8188 34.5264 33.5752 34.546 33.3502 34.4756C33.1252 34.4051 32.9362 34.2501 32.8232 34.0432L31.256 30.9088H25.1048L23.54 34.0432C23.489 34.154 23.4163 34.2535 23.3261 34.3356C23.2358 34.4178 23.13 34.4809 23.0149 34.5213C22.8998 34.5617 22.7778 34.5786 22.656 34.5708C22.5342 34.5631 22.4153 34.531 22.3062 34.4763C22.1971 34.4217 22.1002 34.3456 22.0211 34.2528C21.942 34.1599 21.8824 34.052 21.8458 33.9356C21.8093 33.8192 21.7965 33.6967 21.8083 33.5752C21.8201 33.4538 21.8562 33.336 21.9144 33.2288ZM26.016 29.0904H30.3488L28.1816 24.7592L26.016 29.0904Z" fill="#7D3A3A"/>
</g>
<defs>
<clipPath id="clip0_1277_10">
<rect width="40" height="40" fill="white"/>
</clipPath>
</defs>
</svg>

<svg xmlns="http://www.w3.org/2000/svg" fill="none" viewBox="0 0 40 40"><g clip-path="url(#clip0_1277_10)"><path fill="#7D3A3A" d="M25.45 2.73c0-.5.41-.91.91-.91h3.64c3.5 0 6.36 2.85 6.36 6.36v3.26l2.09-2.08a.91.91 0 0 1 1.28 1.28l-3.65 3.66a1 1 0 0 1-.6.24h-.05a1 1 0 0 1-.6-.24l-3.66-3.66a.91.91 0 0 1 1.29-1.28l2.09 2.08v-3.26a4.55 4.55 0 0 0-4.55-4.54h-3.64a.9.9 0 0 1-.9-.91m-11.81 33.63h-3.64a4.55 4.55 0 0 1-4.55-4.54v-3.26l2.09 2.08a.9.9 0 0 0 1.28-1.28l-3.65-3.66a1 1 0 0 0-.6-.25h-.05a1 1 0 0 0-.6.25l-3.65 3.66a.91.91 0 0 0 1.28 1.28l2.09-2.08v3.26c0 3.5 2.85 6.36 6.36 6.36h3.64a.91.91 0 0 0 0-1.82m3.63-30.9h-10.9a.91.91 0 0 0 0 1.81h3.98l-1.82 3.64h-2.17a.91.91 0 0 0 0 1.82h1.26l-2.07 4.13a.91.91 0 1 0 1.63.82l2.16-4.32 3.59 4.48a.9.9 0 0 0 1.42-1.14l-3.2-3.97h4.3a.91.91 0 0 0 0-1.82h-4.89l1.82-3.64h4.9a.91.91 0 0 0 0-1.82m22.73 11.81v21.82c0 .5-.4.91-.9.91h-21.83a.9.9 0 0 1-.9-.9v-15.46h-15.46a.9.9 0 0 1-.91-.91v-21.82c0-.5.4-.91.9-.91h21.83c.5 0 .9.4.9.9v15.46h15.46c.5 0 .91.41.91.91m-22.73-.9h4.55v-14.55h-20v20h14.54v-4.55c0-.5.41-.9.91-.9m20.91 1.81h-20v20h20zm-16.27 15.05 1.81-3.62.02-.03 3.63-7.26c.3-.62 1.32-.62 1.63 0l3.62 7.26.02.03 1.81 3.62a.91.91 0 0 1-1.63.81l-1.56-3.13h-6.16l-1.56 3.13a.91.91 0 1 1-1.63-.81m4.1-4.14h4.34l-2.17-4.33z"/></g><defs><clipPath id="clip0_1277_10"><path fill="#fff" d="M0 0h40v40h-40z"/></clipPath></defs></svg>
